build/logo/VeeamSolid.svg

<svg xmlns="http://www.w3.org/2000/svg" fill="none" viewBox="0 0 24 24" focusable="false"><path d="M0 0H24V24H0z"/><path fill="#74767B" fill-rule="evenodd" d="M20.0001 9.69567C20.0001 10.4136 19.418 10.9957 18.7001 10.9957L14.3044 10.9957C13.5864 10.9957 13.0044 10.4136 13.0044 9.69567L13.0044 5.3C13.0044 4.58203 13.5864 4 14.3044 4L18.7001 4C19.418 4 20.0001 4.58203 20.0001 5.3L20.0001 9.69567ZM4.21603 4.20335C4.46987 3.94951 4.88143 3.94951 5.13527 4.20335L9.7266 8.79467L9.7266 4.66294C9.7266 4.30396 10.0176 4.01294 10.3766 4.01294C10.7356 4.01294 11.0266 4.30396 11.0266 4.66294L11.0266 10.3641C11.0266 10.7231 10.7356 11.0141 10.3766 11.0141L4.67545 11.0141C4.31647 11.0141 4.02545 10.7231 4.02545 10.3641C4.02545 10.0051 4.31647 9.71408 4.67545 9.71408L8.80753 9.71408L4.21603 5.12258C3.96219 4.86874 3.96219 4.45719 4.21603 4.20335ZM13.1921 13.1922C13.4459 12.9384 13.8575 12.9384 14.1113 13.1922L18.7027 17.7836L18.7027 13.6516C18.7027 13.2926 18.9937 13.0016 19.3527 13.0016C19.7117 13.0016 20.0027 13.2926 20.0027 13.6516L20.0027 19.3527C20.0027 19.7117 19.7117 20.0027 19.3527 20.0027L13.6515 20.0027C13.2925 20.0027 13.0015 19.7117 13.0015 19.3527C13.0015 18.9937 13.2925 18.7027 13.6515 18.7027L17.7834 18.7027L13.1921 14.1115C12.9383 13.8576 12.9383 13.4461 13.1921 13.1922ZM10.9962 18.7C10.9962 19.418 10.4141 20 9.69616 20L5.30049 20C4.58252 20 4.00049 19.418 4.00049 18.7L4.00049 14.3043C4.00049 13.5864 4.58252 13.0043 5.30049 13.0043L9.69616 13.0043C10.4141 13.0043 10.9962 13.5864 10.9962 14.3043L10.9962 18.7Z"/></svg>

<svg xmlns="http://www.w3.org/2000/svg" fill="none" viewBox="0 0 24 24" focusable="false"><path fill="#74767B" fill-rule="evenodd" d="M18.7 10.99c.71 0 1.3-.58 1.3-1.3V5.3c0-.72-.59-1.3-1.3-1.3h-4.4c-.72 0-1.3.58-1.3 1.3v4.39c0 .72.58 1.3 1.3 1.3zM4.21 4.2a.64.64 0 0 1 .92 0l4.59 4.59V4.66c0-.36.29-.65.65-.65s.65.29.65.65v5.7c0 .36-.29.65-.65.65h-5.7c-.36 0-.65-.29-.65-.65s.29-.65.65-.65H8.8L4.21 5.12a.66.66 0 0 1 0-.92m8.98 8.99a.64.64 0 0 1 .92 0l4.59 4.59v-4.13c0-.36.29-.65.65-.65s.65.29.65.65v5.7c0 .36-.29.65-.65.65h-5.7c-.36 0-.65-.29-.65-.65s.29-.65.65-.65h4.13l-4.59-4.59a.64.64 0 0 1 0-.92m-2.2 5.51c0 .71-.58 1.3-1.3 1.3H5.3c-.72 0-1.3-.59-1.3-1.3v-4.4c0-.72.58-1.3 1.3-1.3h4.39c.72 0 1.3.58 1.3 1.3z"/></svg>
